box-cutter-off.svg

<svg fill="currentColor" viewBox="0 0 24 24"><path d="m20.84 22.73-7.98-7.98-.69.69-5.51-2.36c.05-.43.23-.84.56-1.17l1.4-1.41L1.11 3l1.28-1.27 19.72 19.73zm-5.43-10.52-4.25-4.25 5.25-5.25c.79-.78 2.05-.78 2.83 0l1.42 1.42c.78.78.78 2.04 0 2.83zm1.71-5.96c.38.39 1.03.39 1.42 0s.39-1.02 0-1.42c-.39-.39-1.04-.39-1.42 0-.39.4-.39 1.03 0 1.42M5 16v5.75l5.81-5.22-5-2z"/></svg>

<svg  viewBox="0 0 24 24" fill="currentColor"><path  d="M20.84 22.73L12.86 14.75L12.17 15.44L6.66 13.08C6.71 12.65 6.89 12.24 7.22 11.91L8.62 10.5L1.11 3L2.39 1.73L22.11 21.46L20.84 22.73M15.41 12.21L11.16 7.96L16.41 2.71C17.2 1.93 18.46 1.93 19.24 2.71L20.66 4.13C21.44 4.91 21.44 6.17 20.66 6.96L15.41 12.21M17.12 6.25C17.5 6.64 18.15 6.64 18.54 6.25C18.93 5.86 18.93 5.23 18.54 4.83C18.15 4.44 17.5 4.44 17.12 4.83C16.73 5.23 16.73 5.86 17.12 6.25M5 16V21.75L10.81 16.53L5.81 14.53L5 16Z"/></svg>
